images/svg/credit-card.svg

<?xml version="1.0" encoding="utf-8"?>
<!-- Generated by IcoMoon.io -->
<!DOCTYPE svg PUBLIC "-//W3C//DTD SVG 1.1//EN" "http://www.w3.org/Graphics/SVG/1.1/DTD/svg11.dtd">
<svg version="1.1" xmlns="http://www.w3.org/2000/svg" xmlns:xlink="http://www.w3.org/1999/xlink" width="69" height="64" viewBox="0 0 69 64">
<path d="M62.857 4.571q2.357 0 4.036 1.679t1.679 4.036v43.429q0 2.357-1.679 4.036t-4.036 1.679h-57.143q-2.357 0-4.036-1.679t-1.679-4.036v-43.429q0-2.357 1.679-4.036t4.036-1.679h57.143zM5.714 9.143q-0.464 0-0.804 0.339t-0.339 0.804v8h59.429v-8q0-0.464-0.339-0.804t-0.804-0.339h-57.143zM62.857 54.857q0.464 0 0.804-0.339t0.339-0.804v-21.714h-59.429v21.714q0 0.464 0.339 0.804t0.804 0.339h57.143zM9.143 50.286v-4.571h9.143v4.571h-9.143zM22.857 50.286v-4.571h13.714v4.571h-13.714z"></path>
</svg>

<svg xmlns="http://www.w3.org/2000/svg" width="69" height="64"><path d="M62.86 4.57q2.35 0 4.03 1.68t1.68 4.04v43.43q0 2.35-1.68 4.03t-4.03 1.68H5.7q-2.35 0-4.03-1.68T0 53.72V10.29q0-2.36 1.68-4.04T5.7 4.57h57.15zM5.7 9.14q-.46 0-.8.34t-.34.8v8H64v-8q0-.46-.34-.8t-.8-.34H5.7zm57.15 45.72q.46 0 .8-.34t.34-.8V32H4.57v21.71q0 .47.34.8t.8.35h57.15zM9.14 50.29v-4.57h9.15v4.57H9.14zm13.72 0v-4.57h13.71v4.57H22.86z"/></svg>
